X:494
T:Polska # 494
T: efter Melker Andersson
M:3/4
L:1/16
Q: 105
K: D
DE| F2FG E2EF D4| F2FD E2EG F4| (DE)FG (AB)cd (ef)ge| d3f (ed)cB (AG)FE|
F2FG E2EF D4| F2FD E2EG F4| (DE)FG (AB)cd e2f2| (gf)ed c2d2 d2:|
|: A2| Adfd Adfd Adfd| Adfa a2g2 g2f2| Acec Acec Acec|
Aceg g2f2 f2e2| F2FG E2EF D4| F2FD E2EG F4| (DE)FG (AB)cd e2f2|
(gf)ed c2d2 d2:|

